X:1
T:177 - Alvorada
T:Letra: Antônio Pereira de Soua Caldas (1762-1814)
T:Música: John Bacchus Dykes (1823-1876)
L:1/4
M:4/4
Q:1/4=100
K:Eb
V:1
G |"Eb"BAG"Bb7"F | "Eb"E2 Ee | "Ab"dc A c | "Eb"B2z G | BAG"Bb7"F | "Eb"G2 "Bb"G"(Adim)"=A | "Gm"Bd"D7"c=A | "Gm"G2z "Bb7"B |"Eb" Be"Bb7"d"(Adim)"c | "(Bb7)"B2 "Cm7"B"Bb7"A | "Eb"GAB"Ab"c | "Bb7"F2z D |"Eb"EG"Eb7"Be | "Ab"e2 "Eb"E"Fm7"F | "Eb/Bb"GB "Bb7"AF | "Eb"E2z |]
w: 1.~A-pe-nas rom-peaau-ro-ra, Em Ti eu pen-so,ó Deus, Ea Ti le-van-to lo-go Os las-sos o-lhos meus; Mi-nhaal-ma tão se-quio-sa Por seu Deus sus-pi-rou; A-té meu ser in-tei-ro Com ân-siaO de-se-jou.
w: 2.~Em ter-ra mui de-ser-ta E chei-a dea-ri-dez, Em que não há es-tra-da Eem que nem á-gua vês, A tu-a for-ta-le-za De-se-jo ver a-qui, E teu po-der e gló-ria, Co-moeu no tem-plo vi.
w: 3.~Tu tens mi-se-ri-cór-dia Queex-ce-dea tu-do quehá; Por is-soa mi-nha bo-ca Teu No-me lou-va-rá. Du-ran-tea vi-dain-tei-ra Te que-roen-gran-de-cer, Eao céu, pa-rain-vo-car-Te, Hu-mil-des mãos er-guer.
W: 
W:
W: 1. Apenas rompe a aurora,
W: Em Ti eu penso, ó Deus,
W: E a Ti levanto logo
W: Os lassos olhos meus;
W: Minha alma tão sequiosa
W: Por seu Deus suspirou;
W: Até meu ser inteiro
W: Com ânsia O desejou.
W: 
W: 2. Em terra mui deserta
W: E cheia de aridez,
W: Em que não há estrada
W: E em que nem água vês,
W: A tua fortaleza
W: Desejo ver aqui,
W: E teu poder e glória,
W: Como eu no templo vi.
W: 
W: 
W: 
W: 3. Tu tens misericórdia
W: Que excede a tudo que há;
W: Por isso a minha boca
W: Teu Nome louvará.
W: Durante a vida inteira
W: Te quero engrandecer,
W: E ao céu, para invocar-Te,
W: Humildes mãos erguer.
W:         
W: 





